src/activities/railroad/resource/wagon2.svg

<?xml version="1.0" encoding="UTF-8" standalone="no"?>
<!-- Created with Inkscape (http://www.inkscape.org/) -->

<svg
   xmlns:dc="http://purl.org/dc/elements/1.1/"
   xmlns:cc="http://creativecommons.org/ns#"
   xmlns:rdf="http://www.w3.org/1999/02/22-rdf-syntax-ns#"
   xmlns:svg="http://www.w3.org/2000/svg"
   xmlns="http://www.w3.org/2000/svg"
   xmlns:xlink="http://www.w3.org/1999/xlink"
   xmlns:sodipodi="http://sodipodi.sourceforge.net/DTD/sodipodi-0.dtd"
   xmlns:inkscape="http://www.inkscape.org/namespaces/inkscape"
   width="240"
   height="100"
   viewBox="0 0 63.499999 26.458334"
   version="1.1"
   id="svg8"
   inkscape:version="0.92.1 r15371"
   sodipodi:docname="wagon2.svg">
  <defs
     id="defs2">
    <linearGradient
       inkscape:collect="always"
       id="linearGradient1088">
      <stop
         style="stop-color:#d5cfc1;stop-opacity:1"
         offset="0"
         id="stop1084" />
      <stop
         style="stop-color:#5c6188;stop-opacity:1"
         offset="1"
         id="stop1086" />
    </linearGradient>
    <linearGradient
       inkscape:collect="always"
       xlink:href="#linearGradient1088"
       id="linearGradient1090"
       x1="111.32059"
       y1="51.071289"
       x2="111.32059"
       y2="65.714149"
       gradientUnits="userSpaceOnUse" />
  </defs>
  <sodipodi:namedview
     id="base"
     pagecolor="#ffffff"
     bordercolor="#666666"
     borderopacity="1.0"
     inkscape:pageopacity="0.0"
     inkscape:pageshadow="2"
     inkscape:zoom="2.8"
     inkscape:cx="20.64476"
     inkscape:cy="37.500001"
     inkscape:document-units="mm"
     inkscape:current-layer="layer2"
     showgrid="false"
     units="px"
     inkscape:window-width="1884"
     inkscape:window-height="1051"
     inkscape:window-x="0"
     inkscape:window-y="0"
     inkscape:window-maximized="1"
     inkscape:snap-global="false" />
  <metadata
     id="metadata5">
    <rdf:RDF>
      <cc:Work
         rdf:about="">
        <dc:format>image/svg+xml</dc:format>
        <dc:type
           rdf:resource="http://purl.org/dc/dcmitype/StillImage" />
        <dc:title />
        <dc:date>2018</dc:date>
        <dc:creator>
          <cc:Agent>
            <dc:title>Timothée Giet</dc:title>
          </cc:Agent>
        </dc:creator>
        <cc:license
           rdf:resource="http://creativecommons.org/licenses/by-sa/4.0/" />
      </cc:Work>
      <cc:License
         rdf:about="http://creativecommons.org/licenses/by-sa/4.0/">
        <cc:permits
           rdf:resource="http://creativecommons.org/ns#Reproduction" />
        <cc:permits
           rdf:resource="http://creativecommons.org/ns#Distribution" />
        <cc:requires
           rdf:resource="http://creativecommons.org/ns#Notice" />
        <cc:requires
           rdf:resource="http://creativecommons.org/ns#Attribution" />
        <cc:permits
           rdf:resource="http://creativecommons.org/ns#DerivativeWorks" />
        <cc:requires
           rdf:resource="http://creativecommons.org/ns#ShareAlike" />
      </cc:License>
    </rdf:RDF>
  </metadata>
  <g
     inkscape:groupmode="layer"
     id="layer2"
     inkscape:label="Calque 2"
     style="display:inline">
    <path
       inkscape:connector-curvature="0"
       style="display:inline;opacity:1;vector-effect:none;fill:#4a4a43;fill-opacity:1;stroke:none;stroke-width:0.34905761;stroke-linecap:butt;stroke-linejoin:miter;stroke-miterlimit:4;stroke-dasharray:none;stroke-dashoffset:0;stroke-opacity:1"
       d="m 4.8756731,18.369421 v 2.173511 H 1.152901 V 21.20439 H 0 v -0.661458 -2.022099 -0.151412 z"
       id="rect849-3"
       sodipodi:nodetypes="ccccccccc" />
    <path
       inkscape:connector-curvature="0"
       style="display:inline;opacity:1;vector-effect:none;fill:#4a4a43;fill-opacity:1;stroke:none;stroke-width:0.34905761;stroke-linecap:butt;stroke-linejoin:miter;stroke-miterlimit:4;stroke-dasharray:none;stroke-dashoffset:0;stroke-opacity:1"
       d="m 58.737503,18.369421 v 2.173511 h 3.722772 v 0.661458 h 1.152903 v -0.661458 -2.022099 -0.151412 z"
       id="rect849-3-3"
       sodipodi:nodetypes="ccccccccc" />
    <rect
       style="opacity:1;vector-effect:none;fill:#3b4a90;fill-opacity:1;stroke:none;stroke-width:0.34905761;stroke-linecap:butt;stroke-linejoin:miter;stroke-miterlimit:4;stroke-dasharray:none;stroke-dashoffset:0;stroke-opacity:1"
       id="rect877"
       width="60.854164"
       height="12.851191"
       x="1.3229179"
       y="10.129763"
       ry="0.86068696" />
    <circle
       style="display:inline;opacity:1;vector-effect:none;fill:#4e4e4e;fill-opacity:1;stroke:none;stroke-width:0.29451737;stroke-linecap:butt;stroke-linejoin:miter;stroke-miterlimit:4;stroke-dasharray:none;stroke-dashoffset:0;stroke-opacity:1"
       id="path890-3"
       cx="13.623351"
       cy="24.654264"
       r="1.8040693" />
    <circle
       style="display:inline;opacity:1;vector-effect:none;fill:#696969;fill-opacity:1;stroke:none;stroke-width:0.20725296;stroke-linecap:butt;stroke-linejoin:miter;stroke-miterlimit:4;stroke-dasharray:none;stroke-dashoffset:0;stroke-opacity:1"
       id="path890-3-5"
       cx="13.623351"
       cy="24.654264"
       r="1.2695302" />
    <circle
       style="display:inline;opacity:1;vector-effect:none;fill:#4e4e4e;fill-opacity:1;stroke:none;stroke-width:0.29451737;stroke-linecap:butt;stroke-linejoin:miter;stroke-miterlimit:4;stroke-dasharray:none;stroke-dashoffset:0;stroke-opacity:1"
       id="path890-3-6"
       cx="6.744185"
       cy="24.654264"
       r="1.8040693" />
    <circle
       style="display:inline;opacity:1;vector-effect:none;fill:#696969;fill-opacity:1;stroke:none;stroke-width:0.20725296;stroke-linecap:butt;stroke-linejoin:miter;stroke-miterlimit:4;stroke-dasharray:none;stroke-dashoffset:0;stroke-opacity:1"
       id="path890-3-5-2"
       cx="6.744185"
       cy="24.654264"
       r="1.2695302" />
    <circle
       style="display:inline;opacity:1;vector-effect:none;fill:#4e4e4e;fill-opacity:1;stroke:none;stroke-width:0.29451737;stroke-linecap:butt;stroke-linejoin:miter;stroke-miterlimit:4;stroke-dasharray:none;stroke-dashoffset:0;stroke-opacity:1"
       id="path890-3-9"
       cx="55.956692"
       cy="24.654264"
       r="1.8040693" />
    <circle
       style="display:inline;opacity:1;vector-effect:none;fill:#696969;fill-opacity:1;stroke:none;stroke-width:0.20725296;stroke-linecap:butt;stroke-linejoin:miter;stroke-miterlimit:4;stroke-dasharray:none;stroke-dashoffset:0;stroke-opacity:1"
       id="path890-3-5-1"
       cx="55.956692"
       cy="24.654264"
       r="1.2695302" />
    <circle
       style="display:inline;opacity:1;vector-effect:none;fill:#4e4e4e;fill-opacity:1;stroke:none;stroke-width:0.29451737;stroke-linecap:butt;stroke-linejoin:miter;stroke-miterlimit:4;stroke-dasharray:none;stroke-dashoffset:0;stroke-opacity:1"
       id="path890-3-6-2"
       cx="49.077522"
       cy="24.654264"
       r="1.8040693" />
    <circle
       style="display:inline;opacity:1;vector-effect:none;fill:#696969;fill-opacity:1;stroke:none;stroke-width:0.20725296;stroke-linecap:butt;stroke-linejoin:miter;stroke-miterlimit:4;stroke-dasharray:none;stroke-dashoffset:0;stroke-opacity:1"
       id="path890-3-5-2-7"
       cx="49.077522"
       cy="24.654264"
       r="1.2695302" />
    <rect
       style="display:inline;opacity:1;vector-effect:none;fill:#4f65c6;fill-opacity:1;stroke:none;stroke-width:0.32326785;stroke-linecap:butt;stroke-linejoin:miter;stroke-miterlimit:4;stroke-dasharray:none;stroke-dashoffset:0;stroke-opacity:1"
       id="rect877-5"
       width="59.153275"
       height="11.339286"
       x="2.1733644"
       y="10.885715"
       ry="0.75942969" />
    <rect
       style="display:inline;opacity:1;vector-effect:none;fill:#707070;fill-opacity:1;stroke:none;stroke-width:0.45063144;stroke-linecap:butt;stroke-linejoin:miter;stroke-miterlimit:4;stroke-dasharray:none;stroke-dashoffset:0;stroke-opacity:1"
       id="rect888-0"
       width="15.702085"
       height="4.6772165"
       x="44.87339"
       y="20.244318"
       ry="2.3386083" />
    <rect
       style="display:inline;opacity:1;vector-effect:none;fill:#989898;fill-opacity:1;stroke:none;stroke-width:0.3877379;stroke-linecap:butt;stroke-linejoin:miter;stroke-miterlimit:4;stroke-dasharray:none;stroke-dashoffset:0;stroke-opacity:1"
       id="rect888-0-3"
       width="14.568156"
       height="3.732276"
       x="45.440353"
       y="20.716787"
       ry="1.866138" />
    <rect
       style="display:inline;opacity:1;vector-effect:none;fill:#707070;fill-opacity:1;stroke:none;stroke-width:0.45063144;stroke-linecap:butt;stroke-linejoin:miter;stroke-miterlimit:4;stroke-dasharray:none;stroke-dashoffset:0;stroke-opacity:1"
       id="rect888-0-6"
       width="15.702085"
       height="4.6772165"
       x="2.540056"
       y="20.244318"
       ry="2.3386083" />
    <rect
       style="display:inline;opacity:1;vector-effect:none;fill:#989898;fill-opacity:1;stroke:none;stroke-width:0.38773793;stroke-linecap:butt;stroke-linejoin:miter;stroke-miterlimit:4;stroke-dasharray:none;stroke-dashoffset:0;stroke-opacity:1"
       id="rect888-0-3-7"
       width="14.568156"
       height="3.732276"
       x="3.1070187"
       y="20.716787"
       ry="1.866138" />
    <path
       style="opacity:1;vector-effect:none;fill:#eeeeee;fill-opacity:1;stroke:none;stroke-width:0.34905761;stroke-linecap:butt;stroke-linejoin:miter;stroke-miterlimit:4;stroke-dasharray:none;stroke-dashoffset:0;stroke-opacity:1"
       d="m 2.1735107,12.49226 v 5.953125 H 61.326489 V 12.49226 Z"
       id="rect935"
       inkscape:connector-curvature="0" />
    <path
       style="opacity:1;vector-effect:none;fill:#575757;fill-opacity:1;stroke:none;stroke-width:1.31927288;stroke-linecap:butt;stroke-linejoin:miter;stroke-miterlimit:4;stroke-dasharray:none;stroke-dashoffset:0;stroke-opacity:1"
       d="M 8.2148438 51.072266 L 8.2148438 66.072266 L 231.78516 66.072266 L 231.78516 51.072266 L 8.2148438 51.072266 z "
       transform="scale(0.26458333)"
       id="rect958" />
    <path
       style="opacity:1;vector-effect:none;fill:url(#linearGradient1090);fill-opacity:1;stroke:none;stroke-width:1.17220473;stroke-linecap:butt;stroke-linejoin:miter;stroke-miterlimit:4;stroke-dasharray:none;stroke-dashoffset:0;stroke-opacity:1"
       d="M 19.177734 53.214844 L 19.177734 63.927734 L 38.822266 63.927734 L 38.822266 53.214844 L 19.177734 53.214844 z M 45.177734 53.214844 L 45.177734 63.927734 L 64.822266 63.927734 L 64.822266 53.214844 L 45.177734 53.214844 z M 71.177734 53.214844 L 71.177734 63.927734 L 90.822266 63.927734 L 90.822266 53.214844 L 71.177734 53.214844 z M 97.177734 53.214844 L 97.177734 63.927734 L 116.82227 63.927734 L 116.82227 53.214844 L 97.177734 53.214844 z M 123.17773 53.214844 L 123.17773 63.927734 L 142.82227 63.927734 L 142.82227 53.214844 L 123.17773 53.214844 z M 149.17773 53.214844 L 149.17773 63.927734 L 168.82227 63.927734 L 168.82227 53.214844 L 149.17773 53.214844 z M 175.17773 53.214844 L 175.17773 63.927734 L 194.82227 63.927734 L 194.82227 53.214844 L 175.17773 53.214844 z M 201.17773 53.214844 L 201.17773 63.927734 L 220.82227 63.927734 L 220.82227 53.214844 L 201.17773 53.214844 z "
       transform="scale(0.26458333)"
       id="rect976" />
  </g>
</svg>

<!--Created with Inkscape (http://www.inkscape.org/)--><svg xmlns:dc="http://purl.org/dc/elements/1.1/" xmlns:cc="http://creativecommons.org/ns#" xmlns:rdf="http://www.w3.org/1999/02/22-rdf-syntax-ns#" xmlns="http://www.w3.org/2000/svg" xmlns:xlink="http://www.w3.org/1999/xlink" xmlns:sodipodi="http://sodipodi.sourceforge.net/DTD/sodipodi-0.dtd" xmlns:inkscape="http://www.inkscape.org/namespaces/inkscape" width="240" height="100" viewBox="0 0 63.499999 26.458334" inkscape:version="0.92.1 r15371" sodipodi:docname="wagon2.svg"><defs><linearGradient inkscape:collect="always" id="a"><stop style="stop-color:#d5cfc1;stop-opacity:1" offset="0"/><stop style="stop-color:#5c6188;stop-opacity:1" offset="1"/></linearGradient><linearGradient inkscape:collect="always" xlink:href="#a" id="b" x1="111.32059" y1="51.071289" x2="111.32059" y2="65.714149" gradientUnits="userSpaceOnUse"/></defs><sodipodi:namedview pagecolor="#ffffff" bordercolor="#666666" borderopacity="1.0" inkscape:pageopacity="0.0" inkscape:pageshadow="2" inkscape:zoom="2.8" inkscape:cx="20.64476" inkscape:cy="37.500001" inkscape:document-units="mm" inkscape:current-layer="layer2" showgrid="false" units="px" inkscape:window-width="1884" inkscape:window-height="1051" inkscape:window-x="0" inkscape:window-y="0" inkscape:window-maximized="1" inkscape:snap-global="false"/><metadata><rdf:RDF><cc:Work><dc:format>image/svg+xml</dc:format><dc:type rdf:resource="http://purl.org/dc/dcmitype/StillImage"/><dc:title/><dc:date>2018</dc:date><dc:creator><cc:Agent><dc:title>Timothée Giet</dc:title></cc:Agent></dc:creator><cc:license rdf:resource="http://creativecommons.org/licenses/by-sa/4.0/"/></cc:Work><cc:License rdf:about="http://creativecommons.org/licenses/by-sa/4.0/"><cc:permits rdf:resource="http://creativecommons.org/ns#Reproduction"/><cc:permits rdf:resource="http://creativecommons.org/ns#Distribution"/><cc:requires rdf:resource="http://creativecommons.org/ns#Notice"/><cc:requires rdf:resource="http://creativecommons.org/ns#Attribution"/><cc:permits rdf:resource="http://creativecommons.org/ns#DerivativeWorks"/><cc:requires rdf:resource="http://creativecommons.org/ns#ShareAlike"/></cc:License></rdf:RDF></metadata><g inkscape:groupmode="layer" inkscape:label="Calque 2" style="display:inline"><path inkscape:connector-curvature="0" style="display:inline;opacity:1;vector-effect:none;fill:#4a4a43;fill-opacity:1;stroke:none;stroke-width:.34905761;stroke-linecap:butt;stroke-linejoin:miter;stroke-miterlimit:4;stroke-dasharray:none;stroke-dashoffset:0;stroke-opacity:1" d="M4.876 18.37v2.173H1.153v.661H0V18.37z" sodipodi:nodetypes="ccccccccc"/><path inkscape:connector-curvature="0" style="display:inline;opacity:1;vector-effect:none;fill:#4a4a43;fill-opacity:1;stroke:none;stroke-width:.34905761;stroke-linecap:butt;stroke-linejoin:miter;stroke-miterlimit:4;stroke-dasharray:none;stroke-dashoffset:0;stroke-opacity:1" d="M58.738 18.37v2.173h3.722v.661h1.153V18.37z" sodipodi:nodetypes="ccccccccc"/><rect style="opacity:1;vector-effect:none;fill:#3b4a90;fill-opacity:1;stroke:none;stroke-width:.34905761;stroke-linecap:butt;stroke-linejoin:miter;stroke-miterlimit:4;stroke-dasharray:none;stroke-dashoffset:0;stroke-opacity:1" width="60.854164" height="12.851191" x="1.3229179" y="10.129763" ry="0.86068696"/><circle style="display:inline;opacity:1;vector-effect:none;fill:#4e4e4e;fill-opacity:1;stroke:none;stroke-width:.29451737;stroke-linecap:butt;stroke-linejoin:miter;stroke-miterlimit:4;stroke-dasharray:none;stroke-dashoffset:0;stroke-opacity:1" cx="13.623351" cy="24.654264" r="1.8040693"/><circle style="display:inline;opacity:1;vector-effect:none;fill:#696969;fill-opacity:1;stroke:none;stroke-width:.20725296;stroke-linecap:butt;stroke-linejoin:miter;stroke-miterlimit:4;stroke-dasharray:none;stroke-dashoffset:0;stroke-opacity:1" cx="13.623351" cy="24.654264" r="1.2695302"/><circle style="display:inline;opacity:1;vector-effect:none;fill:#4e4e4e;fill-opacity:1;stroke:none;stroke-width:.29451737;stroke-linecap:butt;stroke-linejoin:miter;stroke-miterlimit:4;stroke-dasharray:none;stroke-dashoffset:0;stroke-opacity:1" cx="6.744185" cy="24.654264" r="1.8040693"/><circle style="display:inline;opacity:1;vector-effect:none;fill:#696969;fill-opacity:1;stroke:none;stroke-width:.20725296;stroke-linecap:butt;stroke-linejoin:miter;stroke-miterlimit:4;stroke-dasharray:none;stroke-dashoffset:0;stroke-opacity:1" cx="6.744185" cy="24.654264" r="1.2695302"/><circle style="display:inline;opacity:1;vector-effect:none;fill:#4e4e4e;fill-opacity:1;stroke:none;stroke-width:.29451737;stroke-linecap:butt;stroke-linejoin:miter;stroke-miterlimit:4;stroke-dasharray:none;stroke-dashoffset:0;stroke-opacity:1" cx="55.956692" cy="24.654264" r="1.8040693"/><circle style="display:inline;opacity:1;vector-effect:none;fill:#696969;fill-opacity:1;stroke:none;stroke-width:.20725296;stroke-linecap:butt;stroke-linejoin:miter;stroke-miterlimit:4;stroke-dasharray:none;stroke-dashoffset:0;stroke-opacity:1" cx="55.956692" cy="24.654264" r="1.2695302"/><circle style="display:inline;opacity:1;vector-effect:none;fill:#4e4e4e;fill-opacity:1;stroke:none;stroke-width:.29451737;stroke-linecap:butt;stroke-linejoin:miter;stroke-miterlimit:4;stroke-dasharray:none;stroke-dashoffset:0;stroke-opacity:1" cx="49.077522" cy="24.654264" r="1.8040693"/><circle style="display:inline;opacity:1;vector-effect:none;fill:#696969;fill-opacity:1;stroke:none;stroke-width:.20725296;stroke-linecap:butt;stroke-linejoin:miter;stroke-miterlimit:4;stroke-dasharray:none;stroke-dashoffset:0;stroke-opacity:1" cx="49.077522" cy="24.654264" r="1.2695302"/><rect style="display:inline;opacity:1;vector-effect:none;fill:#4f65c6;fill-opacity:1;stroke:none;stroke-width:.32326785;stroke-linecap:butt;stroke-linejoin:miter;stroke-miterlimit:4;stroke-dasharray:none;stroke-dashoffset:0;stroke-opacity:1" width="59.153275" height="11.339286" x="2.1733644" y="10.885715" ry="0.75942969"/><rect style="display:inline;opacity:1;vector-effect:none;fill:#707070;fill-opacity:1;stroke:none;stroke-width:.45063144;stroke-linecap:butt;stroke-linejoin:miter;stroke-miterlimit:4;stroke-dasharray:none;stroke-dashoffset:0;stroke-opacity:1" width="15.702085" height="4.6772165" x="44.87339" y="20.244318" ry="2.3386083"/><rect style="display:inline;opacity:1;vector-effect:none;fill:#989898;fill-opacity:1;stroke:none;stroke-width:.3877379;stroke-linecap:butt;stroke-linejoin:miter;stroke-miterlimit:4;stroke-dasharray:none;stroke-dashoffset:0;stroke-opacity:1" width="14.568156" height="3.732276" x="45.440353" y="20.716787" ry="1.866138"/><rect style="display:inline;opacity:1;vector-effect:none;fill:#707070;fill-opacity:1;stroke:none;stroke-width:.45063144;stroke-linecap:butt;stroke-linejoin:miter;stroke-miterlimit:4;stroke-dasharray:none;stroke-dashoffset:0;stroke-opacity:1" width="15.702085" height="4.6772165" x="2.540056" y="20.244318" ry="2.3386083"/><rect style="display:inline;opacity:1;vector-effect:none;fill:#989898;fill-opacity:1;stroke:none;stroke-width:.38773793;stroke-linecap:butt;stroke-linejoin:miter;stroke-miterlimit:4;stroke-dasharray:none;stroke-dashoffset:0;stroke-opacity:1" width="14.568156" height="3.732276" x="3.1070187" y="20.716787" ry="1.866138"/><path style="opacity:1;vector-effect:none;fill:#eee;fill-opacity:1;stroke:none;stroke-width:.34905761;stroke-linecap:butt;stroke-linejoin:miter;stroke-miterlimit:4;stroke-dasharray:none;stroke-dashoffset:0;stroke-opacity:1" d="M2.174 12.492v5.953h59.152v-5.953z" inkscape:connector-curvature="0"/><path style="opacity:1;vector-effect:none;fill:#575757;fill-opacity:1;stroke:none;stroke-width:1.31927288;stroke-linecap:butt;stroke-linejoin:miter;stroke-miterlimit:4;stroke-dasharray:none;stroke-dashoffset:0;stroke-opacity:1" d="M8.215 51.072v15h223.57v-15H8.215z" transform="scale(.26458)"/><path style="opacity:1;vector-effect:none;fill:url(#b);fill-opacity:1;stroke:none;stroke-width:1.17220473;stroke-linecap:butt;stroke-linejoin:miter;stroke-miterlimit:4;stroke-dasharray:none;stroke-dashoffset:0;stroke-opacity:1" d="M19.178 53.215v10.713h19.644V53.215H19.178zm26 0v10.713h19.644V53.215H45.178zm26 0v10.713h19.644V53.215H71.178zm26 0v10.713h19.644V53.215H97.178zm26 0v10.713h19.644V53.215h-19.644zm26 0v10.713h19.644V53.215h-19.644zm26 0v10.713h19.644V53.215h-19.644zm26 0v10.713h19.644V53.215h-19.644z" transform="scale(.26458)"/></g></svg>
